!!!OTL: Sheshe duidui qingfengnian
!!!ARE: Asia, China,ÿHubei Badong
!! I, 379
!!!SCT: C2138
!!!YEM: Copyright 1995, estate of Helmut Schaffrath.
**kern
*ICvox
*Ivox
!! Mixed meters:  2/4; 4/4
*M4/4
*k[f#]
*G:
{8dd
8b
8dd
8b
2dd
=1
8ee
8dd
4b
2a}
=2
{8b
8dd
8b
8dd
8b
4dd
16b
16a
=3
8g
8a
8dd
8b
2a}
=4
{4a
4b
8a
8b
4g
=5
4a
8b
8dd
4a
4b
=6
8a
8g
8e
8d
2g}
=7
{4a
4b
8a
8b
4g
=8
8b
16b
16b
8b
8b
2dd
=9
8b
8dd
4a
2b}
==
!!!AGN: Xiaodiao, Dengdiao, Gurche Diqiang
!!!ONB: ESAC (Essen Associative Code) Database: SENGANSU
!!!AMT: irregular
!!!AIN: vox
!!!EED: Helmut Schaffrath
!!!EEV: 1.0
*-
